public/noisecat.svg

<svg width="33" height="39" viewBox="0 0 33 39" fill="none" xmlns="http://www.w3.org/2000/svg">
  <path d="M30.4 0L23 7.2C21.1 6.4 19 6 16.8 6H16.1C13.9 6 11.8 6.5 9.9 7.3L2.6 0L0.200001 21.8C0.200001 23.9 0.700001 26.2 1.5 28.1L1.6 28.3C3.9 34.2 10.6 38.1 16.5 38.1C23.4 38.1 29.3 34.2 31.6 28.2C32.3 26.3 32.8 24.3 32.8 22.2L30.4 0Z" fill="#FFC531"/>
  <path d="M32.8 22.1L30.4 0L23 7.2C21.1 6.4 19 6 16.8 6H16.1C13.9 6 11.8 6.5 9.9 7.3L2.6 0L0.200001 21.8C0.200001 23.9 0.700001 26.2 1.5 28.1L1.6 28.3C3.9 34.2 10.6 38.1 16.5 38.1C23.4 38.1 29.3 34.2 31.6 28.2C32.4 26.3 32.8 24.2 32.8 22.1ZM29.9 27.2C29.9 27.3 29.8 27.3 29.8 27.4C27.8 32.5 22.6 36 16.5 36C11.3 36 5.5 32.6 3.4 27.5L3.3 27.3C2.6 25.7 2.2 23.7 2.2 21.9L4.1 4.3L8.5 8.6C8.9 9 9.4 9.2 9.9 9.2C10.2 9.2 10.4 9.1 10.7 9C12.4 8.3 14.2 7.9 16.1 7.9H16.8C18.7 7.9 20.6 8.3 22.2 9C22.5 9.1 22.7 9.2 23 9.2C23.5 9.2 24 9 24.4 8.6L28.8 4.3L30.8 22.2C30.8 24 30.4 25.7 29.9 27.2Z" fill="black"/>
  <path d="M13.7576 19.6877C13.0967 17.044 9.13114 17.044 8.47021 19.6877" stroke="black" stroke-width="1.32186" stroke-miterlimit="10" stroke-linecap="round" stroke-linejoin="round"/>
  <path d="M25.6544 19.6877C24.9934 17.044 21.0279 17.044 20.3669 19.6877" stroke="black" stroke-width="1.32186" stroke-miterlimit="10" stroke-linecap="round" stroke-linejoin="round"/>
</svg>

<svg xmlns="http://www.w3.org/2000/svg" viewBox="0 0 35 40">
  <path fill="#FFC531" d="M30.4 0L23 7.2C21.1 6.4 19 6 16.8 6h-.7a16 16 0 00-6.2 1.3L2.6 0 .2 21.8c0 2.1.5 4.4 1.3 6.3l.1.2c2.3 5.9 9 9.8 14.9 9.8 6.9 0 12.8-3.9 15.1-9.9.7-1.9 1.2-3.9 1.2-6L30.4 0z"/>
  <path d="M32.8 22.1L30.4 0 23 7.2C21.1 6.4 19 6 16.8 6h-.7a16 16 0 00-6.2 1.3L2.6 0 .2 21.8c0 2.1.5 4.4 1.3 6.3l.1.2c2.3 5.9 9 9.8 14.9 9.8 6.9 0 12.8-3.9 15.1-9.9.8-1.9 1.2-4 1.2-6.1zm-2.9 5.1c0 .1-.1.1-.1.2-2 5.1-7.2 8.6-13.3 8.6-5.2 0-11-3.4-13.1-8.5l-.1-.2c-.7-1.6-1.1-3.6-1.1-5.4L4.1 4.3l4.4 4.3c.4.4.9.6 1.4.6.3 0 .5-.1.8-.2 1.7-.7 3.5-1.1 5.4-1.1h.7c1.9 0 3.8.4 5.4 1.1.3.1.5.2.8.2.5 0 1-.2 1.4-.6l4.4-4.3 2 17.9c0 1.8-.4 3.5-.9 5z"/>
  <path fill="none" stroke="#000" stroke-linecap="round" stroke-linejoin="round" stroke-miterlimit="10" stroke-width="1.32" d="M13.76 19.69c-.66-2.65-4.63-2.65-5.29 0M25.65 19.69c-.66-2.65-4.62-2.65-5.28 0"/>
</svg>
